assets/images/icons/react-icon.svg

<svg xmlns="http://www.w3.org/2000/svg" width="80" height="80" viewBox="0 0 80 80">
  <path fill="#61DAFB" d="M56.2576437,4 L56.257,4.016 L56.5772825,4.0224404 C57.6889221,4.06339554 58.717519,4.31007006 59.6253265,4.78133729 L59.8940073,4.92947411 C64.4924582,7.57113738 65.5360783,15.8222585 63.1879331,26.1932328 C73.3632287,29.3077864 80,34.3302079 80,39.629841 C80,44.9131675 73.3958418,49.9355891 63.2857725,53.0501427 C65.6502242,63.3885039 64.6229107,71.6233184 60.0407664,74.2649817 C58.9645332,74.8846311 57.7252344,75.1781492 56.3554831,75.1781492 C51.8711781,75.1781492 46.0008153,72.0146759 40.0652263,66.5030575 C34.1296372,72.047289 28.2592744,75.2433755 23.7749694,75.2433755 C22.4052181,75.2433755 21.1659193,74.9498573 20.1059927,74.3302079 C15.5075418,71.6885446 14.4639217,63.4374236 16.8120669,53.0664492 C6.6367713,49.9518956 9.9475983e-14,44.9294741 9.9475983e-14,39.629841 C9.9475983e-14,34.3465145 6.60415817,29.3403995 16.7468406,26.2095393 C14.3823889,15.8711781 15.4097024,7.63636364 19.9918467,4.99470037 C21.0680799,4.37505096 22.3073787,4.08153282 23.67713,4.08153282 L23.67713,4.08153282 L23.67713,4.06522625 C28.161435,4.06522625 34.0317978,7.22869955 39.9673869,12.740318 C45.9029759,7.19608642 51.7733388,4 56.2576437,4 L56.2576437,4 Z M20.3016714,54.044843 C19.942927,55.691806 19.6494089,57.3061557 19.4700367,58.8389727 C18.7199348,65.0680799 19.682022,69.9111292 21.8997146,71.1830412 C22.3889115,71.4602528 23.0085609,71.6070118 23.7423563,71.6233184 C27.1341215,71.6233184 32.1239299,68.9164289 37.4398695,63.9755402 C35.1406441,61.5784753 32.8577252,58.8389727 30.6563392,55.8222585 C26.9873624,55.4309009 23.4977578,54.8275581 20.3016714,54.044843 Z M59.7309417,54.0122299 C56.5348553,54.8112515 53.0452507,55.4145944 49.3599674,55.8059519 C47.1911945,58.8226661 44.9082756,61.5458622 42.6253567,63.942927 C47.9412964,68.8512026 52.9474113,71.5417856 56.32287,71.5417856 C57.0729719,71.5417856 57.7089278,71.4113331 58.1981247,71.1178149 C60.3995108,69.8295964 61.3452915,64.9865471 60.578883,58.7574399 C60.3995108,57.2409295 60.1059927,55.6591928 59.7309417,54.0122299 Z M44.5169181,56.1810029 C43.0330208,56.2625357 41.5165104,56.2951488 39.9836934,56.2951488 C38.467183,56.2951488 36.9669792,56.2462291 35.4993885,56.1810029 C36.9995923,58.0888708 38.5161027,59.8336731 40.0326131,61.3991031 C41.532817,59.8336731 43.0493274,58.0888708 44.5169181,56.1810029 Z M40,26.6172034 C37.5214024,26.6172034 35.0591113,26.7313494 32.6294333,26.9433347 C31.2759886,28.8838157 29.9714635,30.9710558 28.6995516,33.1724419 C27.4765593,35.3086017 26.3350999,37.4936812 25.3240929,39.6787607 C26.3514064,41.8638402 27.4765593,44.0326131 28.7158581,46.1687729 C29.9877701,48.3538524 31.3086017,50.424786 32.6620465,52.365267 C35.0754179,52.5609458 37.5377089,52.6750917 40,52.6750917 C42.4785976,52.6750917 44.9408887,52.5609458 47.3705667,52.3489605 C48.7240114,50.4084794 50.0285365,48.3212393 51.3004484,46.1198532 C52.5234407,43.9836934 53.6485936,41.7986139 54.6759071,39.6135344 C53.6485936,37.428455 52.5234407,35.259682 51.2841419,33.1235222 C50.0122299,30.9384427 48.6913983,28.8675092 47.3379535,26.9270281 C44.9245821,26.7313494 42.4622911,26.6172034 40,26.6172034 Z M56.5674684,44 C55.8988993,45.3045251 55.1977171,46.6253567 54.4476152,47.9298818 C53.6975132,49.2507134 52.8984916,50.5389319 52.09947,51.7945373 C54.4313086,51.4520995 56.6816143,51.0118223 58.8177742,50.4900122 C58.1981247,48.370159 57.4480228,46.1850795 56.5674684,44 Z M23.416225,44.0652263 C22.5682837,46.2339992 21.8181818,48.4027721 21.214839,50.5063188 C23.3509988,51.0281288 25.584998,51.4520995 27.90053,51.7945373 C27.1015084,50.5552385 26.3187933,49.2833265 25.5523848,47.9788015 C24.7859764,46.6742764 24.0847941,45.3697513 23.416225,44.0652263 Z M17.6437016,29.731757 C16.0619649,30.2372605 14.529148,30.7753771 13.1267835,31.3787199 C7.35426009,33.8247044 3.62005707,37.0697106 3.62005707,39.629841 C3.62005707,42.1899715 7.35426009,45.418671 13.1267835,47.8809621 C14.5454545,48.4843049 16.0782715,49.0387281 17.6926213,49.5442316 C18.6057888,46.3644517 19.8124745,43.0542193 21.3126784,39.6624541 C19.796168,36.2543824 18.5731757,32.9278435 17.6437016,29.731757 Z M62.2910722,29.7154505 C61.3779046,32.8952303 60.1712189,36.2054627 58.6710151,39.5972279 C60.1875255,43.0052996 61.4105177,46.3318386 62.3399918,49.527925 C63.9217285,49.0224215 65.4545455,48.4843049 66.8569099,47.8809621 C72.6294333,45.4349776 76.3636364,42.1899715 76.3799429,39.629841 C76.3799429,37.0697106 72.6457399,33.841011 66.8732165,31.3787199 C65.4382389,30.7753771 63.9054219,30.2209539 62.2910722,29.7154505 Z M39.9836934,32.1777415 C44.0993743,32.1777415 47.4357929,35.5141601 47.4357929,39.629841 C47.4357929,43.7455219 44.0993743,47.0819405 39.9836934,47.0819405 C35.8680125,47.0819405 32.531594,43.7455219 32.531594,39.629841 C32.531594,35.5141601 35.8680125,32.1777415 39.9836934,32.1777415 Z M27.8842234,27.4651447 C25.5523848,27.8075826 23.3020791,28.2478598 21.1659193,28.7533632 C21.7855687,30.8732165 22.5356706,33.058296 23.416225,35.2433755 C24.0847941,33.9388504 24.7859764,32.6343253 25.5360783,31.3298002 C26.2861802,30.0089686 27.0852018,28.7207501 27.8842234,27.4651447 Z M52.0831635,27.4651447 C52.8821851,28.7044435 53.6812067,29.9763555 54.4313086,31.2808806 C55.1977171,32.5854056 55.8988993,33.8899307 56.5674684,35.1944558 C57.4154097,33.0256828 58.1655116,30.8569099 58.7688545,28.7533632 C56.6326947,28.2315532 54.3986955,27.8075826 52.0831635,27.4651447 Z M23.67713,7.70158989 L23.67713,7.71789645 C22.9270281,7.71789645 22.2910722,7.84834896 21.8018753,8.1418671 C19.6004892,9.43008561 18.6547085,14.2731349 19.421117,20.5022422 C19.6167958,22.0187525 19.8940073,23.6004892 20.2690583,25.2311455 C23.4651447,24.4321239 26.9547493,23.8287811 30.6400326,23.4374236 C32.8088055,20.4207093 35.0917244,17.6975132 37.3746433,15.3004484 C32.0587036,10.3921728 27.0525887,7.70158989 23.67713,7.70158989 L23.67713,7.70158989 Z M56.241,7.636 L56.0239256,7.64055265 C52.6389006,7.76055799 47.7552533,10.4555461 42.5601305,15.2841419 C44.8593559,17.6812067 47.1422748,20.4207093 49.3436608,23.4374236 C53.0126376,23.8287811 56.5022422,24.4321239 59.6983286,25.214839 C60.057073,23.5678761 60.3505911,21.9535263 60.5299633,20.4207093 C61.2800652,14.1916021 60.317978,9.34855279 58.1002854,8.07664085 C57.5947819,7.79942927 56.9914391,7.6526702 56.2413371,7.6526702 L56.2413371,7.6526702 L56.241,7.636 Z M39.9510803,17.8605789 C38.4508765,19.426009 36.9343661,21.1708113 35.4667754,23.0786792 C36.9506726,22.9971464 38.467183,22.9645332 40,22.9645332 C41.5165104,22.9645332 43.0167142,23.0134529 44.4843049,23.0786792 C42.9841011,21.1708113 41.4675907,19.426009 39.9510803,17.8605789 Z"/>
</svg>

<svg xmlns="http://www.w3.org/2000/svg" width="80" height="80"><path fill="#61DAFB" d="M56.258 4l-.001.016.32.006c1.112.041 2.14.288 3.048.76l.269.147c4.598 2.642 5.642 10.893 3.294 21.264C73.363 29.308 80 34.33 80 39.63c0 5.283-6.604 10.306-16.714 13.42 2.364 10.339 1.337 18.573-3.245 21.215-1.076.62-2.316.913-3.686.913-4.484 0-10.354-3.163-16.29-8.675-5.935 5.544-11.806 8.74-16.29 8.74-1.37 0-2.61-.293-3.669-.913-4.598-2.641-5.642-10.893-3.294-21.264C6.637 49.952 0 44.93 0 39.63c0-5.283 6.604-10.29 16.747-13.42C14.382 15.87 15.41 7.636 19.992 4.995c1.076-.62 2.315-.913 3.685-.913v-.017c4.484 0 10.355 3.164 16.29 8.675C45.903 7.196 51.773 4 56.257 4zM20.302 54.045c-.36 1.647-.653 3.261-.832 4.794-.75 6.23.212 11.072 2.43 12.344.489.277 1.109.424 1.842.44 3.392 0 8.382-2.707 13.698-7.647-2.3-2.398-4.582-5.137-6.784-8.154-3.669-.391-7.158-.994-10.354-1.777zm39.429-.033c-3.196.8-6.686 1.403-10.371 1.794a77.018 77.018 0 0 1-6.735 8.137c5.316 4.908 10.322 7.599 13.698 7.599.75 0 1.386-.13 1.875-.424 2.202-1.288 3.147-6.131 2.38-12.36-.178-1.517-.472-3.099-.847-4.746zm-15.214 2.169c-1.484.082-3 .114-4.533.114-1.517 0-3.017-.049-4.485-.114a67.226 67.226 0 0 0 4.534 5.218 63.649 63.649 0 0 0 4.484-5.218zM40 26.617c-2.479 0-4.94.114-7.37.326-1.354 1.94-2.659 4.028-3.93 6.23a85.034 85.034 0 0 0-3.376 6.506 84.939 84.939 0 0 0 3.392 6.49 89.889 89.889 0 0 0 3.946 6.196c2.413.196 4.876.31 7.338.31 2.479 0 4.94-.114 7.37-.326 1.354-1.94 2.659-4.028 3.93-6.23a91.301 91.301 0 0 0 3.376-6.505 84.939 84.939 0 0 0-3.392-6.49 89.889 89.889 0 0 0-3.946-6.197 91.045 91.045 0 0 0-7.338-.31zM56.567 44a92.624 92.624 0 0 1-2.12 3.93c-.75 1.32-1.549 2.609-2.348 3.865a73.185 73.185 0 0 0 6.719-1.305 69.883 69.883 0 0 0-2.25-6.49zm-33.15.065a73.442 73.442 0 0 0-2.202 6.441 73.58 73.58 0 0 0 6.686 1.289 108 108 0 0 1-2.349-3.816 77.171 77.171 0 0 1-2.136-3.914zm-5.773-14.333c-1.582.505-3.115 1.043-4.517 1.647-5.773 2.446-9.507 5.69-9.507 8.25 0 2.561 3.734 5.79 9.507 8.252a49.536 49.536 0 0 0 4.566 1.663c.913-3.18 2.12-6.49 3.62-9.882-1.517-3.408-2.74-6.734-3.67-9.93zm44.647-.017c-.913 3.18-2.12 6.49-3.62 9.882 1.517 3.408 2.74 6.735 3.669 9.93 1.582-.505 3.115-1.043 4.517-1.646 5.772-2.446 9.507-5.691 9.523-8.251 0-2.56-3.734-5.789-9.507-8.251a51.719 51.719 0 0 0-4.582-1.664zm-22.307 2.463a7.452 7.452 0 1 1 0 14.904 7.452 7.452 0 0 1 0-14.904zm-12.1-4.713a79.193 79.193 0 0 0-6.718 1.288c.62 2.12 1.37 4.305 2.25 6.49a90.085 90.085 0 0 1 4.468-7.778zm24.2 0a88.23 88.23 0 0 1 2.347 3.816 77.171 77.171 0 0 1 2.136 3.913 73.442 73.442 0 0 0 2.202-6.44 73.58 73.58 0 0 0-6.686-1.289zM23.676 7.702v.016c-.75 0-1.386.13-1.875.424-2.202 1.288-3.147 6.131-2.38 12.36.195 1.517.472 3.098.847 4.73 3.196-.8 6.686-1.403 10.371-1.795a77.018 77.018 0 0 1 6.735-8.137c-5.316-4.908-10.322-7.598-13.698-7.598zm32.564-.066l-.217.005c-3.385.12-8.269 2.815-13.464 7.643 2.3 2.397 4.582 5.137 6.784 8.153 3.669.392 7.158.995 10.354 1.778.36-1.647.653-3.261.832-4.794.75-6.23-.212-11.072-2.43-12.344-.505-.278-1.109-.424-1.859-.424v-.017zm-16.29 10.225a63.649 63.649 0 0 0-4.484 5.218c1.484-.082 3-.114 4.533-.114 1.517 0 3.017.048 4.484.114a67.226 67.226 0 0 0-4.533-5.218z"/></svg>
